src/assets/filled/CameraSlash.svg

<svg width="24" height="24" viewBox="0 0 24 24"  xmlns="http://www.w3.org/2000/svg">
<path d="M21.7699 2.22988C21.4699 1.92988 20.9799 1.92988 20.6799 2.22988L2.22988 20.6899C1.92988 20.9899 1.92988 21.4799 2.22988 21.7799C2.37988 21.9199 2.56988 21.9999 2.76988 21.9999C2.96988 21.9999 3.15988 21.9199 3.30988 21.7699L21.7699 3.30988C22.0799 3.00988 22.0799 2.52988 21.7699 2.22988Z" />
<path d="M16.5499 5.11L15.8299 3.66C15.3699 2.75 14.1699 2 13.1499 2H10.8599C9.82992 2 8.62992 2.75 8.16992 3.66L7.44992 5.11C7.16992 5.65 6.60992 6 5.99992 6C3.82992 6 2.10992 7.83 2.24992 9.99L2.76992 18.25C2.81992 19.1 3.02992 19.89 3.47992 20.52L17.9999 6C17.3899 6 16.8299 5.65 16.5499 5.11ZM9.49992 10.75H6.49992C6.08992 10.75 5.74992 10.41 5.74992 10C5.74992 9.59 6.08992 9.25 6.49992 9.25H9.49992C9.90992 9.25 10.2499 9.59 10.2499 10C10.2499 10.41 9.90992 10.75 9.49992 10.75Z" />
<path d="M21.75 9.99006L21.23 18.2501C21.1 20.3101 20 22.0001 17.24 22.0001H7.41002C6.52002 22.0001 6.07002 20.9201 6.70002 20.2901L9.17002 17.8201C9.48002 17.5101 9.96002 17.4701 10.35 17.6901C11.04 18.0801 11.87 18.2301 12.75 18.0401C14.02 17.7701 15.05 16.7301 15.3 15.4501C15.47 14.5901 15.32 13.7801 14.94 13.1101C14.72 12.7201 14.75 12.2301 15.07 11.9201L19.57 7.42006C19.98 7.01006 20.67 7.06006 21.02 7.53006C21.54 8.21006 21.81 9.07006 21.75 9.99006Z" />
</svg>

<?xml version="1.0" encoding="UTF-8"?>
<svg width="24" height="24" viewBox="0 0 24 24" xmlns="http://www.w3.org/2000/svg">
 <path d="m21.77 2.2299c-0.3-0.3-0.79-0.3-1.09 0l-18.45 18.46c-0.3 0.3-0.3 0.79 0 1.09 0.15 0.14 0.34 0.22 0.54 0.22s0.39-0.08 0.54-0.23l18.46-18.46c0.31-0.3 0.31-0.78 0-1.08z"/>
 <path d="m16.55 5.11-0.72-1.45c-0.46-0.91-1.66-1.66-2.68-1.66h-2.29c-1.03 0-2.23 0.75-2.69 1.66l-0.72 1.45c-0.28 0.54-0.84 0.89-1.45 0.89-2.17 0-3.89 1.83-3.75 3.99l0.52 8.26c0.05 0.85 0.26 1.64 0.71 2.27l14.52-14.52c-0.61 0-1.17-0.35-1.45-0.89zm-7.05 5.64h-3c-0.41 0-0.75-0.34-0.75-0.75s0.34-0.75 0.75-0.75h3c0.41 0 0.74998 0.34 0.74998 0.75s-0.33998 0.75-0.74998 0.75z"/>
 <path d="m21.75 9.9901-0.52 8.26c-0.13 2.06-1.23 3.75-3.99 3.75h-9.83c-0.89 0-1.34-1.08-0.71-1.71l2.47-2.47c0.31-0.31 0.79-0.35 1.18-0.13 0.69 0.39 1.52 0.54 2.4 0.35 1.27-0.27 2.3-1.31 2.55-2.59 0.17-0.86 0.02-1.67-0.36-2.34-0.22-0.39-0.19-0.88 0.13-1.19l4.5-4.5c0.41-0.41 1.1-0.36 1.45 0.11 0.52 0.68 0.79 1.54 0.73 2.46z"/>
</svg>
